!!!COM: Mozart, Wolfgang Amadeus
!!!OPR: Divertimento in B-flat Major
!!!OTL:
!!!OMV: 2
!!!SCT: K 137
!!!SCA: Chronologisch-thematisches Verzeichnis sämtlicher Tonwerke Wolfgang Amade Mozarts (L. von Köchel; 1862, 2/1905, 3/1937, 1947)
!!!YOR: Breitkopf & Härtel Edition
!!!EED: Frances Bennion
!!!ENC: Frances Bennion
!!!CDT: 1756/1/27/-1791/12/5/
!!!OCY: Österreich
!!!YEC: Copyright (c) 1994, 2000 Center for Computer Assisted Research in the Humanities
!!!YEM: Rights to all derivative editions reserved.
!!!YEM: Refer to licensing agreement for further details.
!!!YEN: United States of America
**kern	**kern	**kern	**kern
*k[b-e-]	*k[b-e-]	*k[b-e-]	*k[b-e-]
*B-:	*B-:	*B-:	*B-:
*clefG	*clefG	*clefF	*clefC
*M4/4	*M4/4	*M4/4	*M4/4
*tb32	*tb32	*tb32	*tb32
=1	=1	=1	=1
2bb- 2b- 2d	2dd 2f 2B-	8B-	8BB-
.	.	8B-	8BB-
.	.	8B-	8BB-
.	.	8B-	8BB-
4.dd	4.b-	8B-	8BB-
.	.	8B-	8BB-
.	.	8B-	8BB-
8ee-	8cc	8B-	8BB-
=2	=2	=2	=2
8ee	8cc#	8B-	8BB-
8ff	8dd	8B-	8BB-
4.ff	4.dd	8B-	8BB-
.	.	8B-	8BB-
.	.	8B-	8BB-
8bb-	8ff	8B-	8BB-
8dd	8b-	8B-	8BB-
8ee-	8cc	8B-	8BB-
=3	=3	=3	=3
8ee	8cc#	8B-	8BB-
8ff	8dd	8B-	8BB-
4ff	4dd	8B-	8BB-
.	.	8B-	8BB-
16bb-	8f	8d	8D
16aa	.	.	.
16gg	8f	8d	8D
16ff	.	.	.
16ee-	8f	8d	8D
16dd	.	.	.
16cc	8f	8d	8D
16b-	.	.	.
=4	=4	=4	=4
4b	8g	8e-	8E-
.	8g	8e-	8E-
8cc	8g	8e-	8E-
8ee-	8g	8e-	8E-
4b-	8c	8e-	8F
.	8c	8e-	8F
8a	8c	8e-	8F
8cc	8c	8e-	8F
=5	=5	=5	=5
4e-	8B-	8B-	8G
.	8B-	8B-	8G
8d	8B-	8B-	8G
8r	8B-	8B-	8G
16bb-	8f	8d	8D
16aa	.	.	.
16gg	8f	8d	8D
16ff	.	.	.
16ee-	8f	8d	8D
16dd	.	.	.
16cc	8f	8d	8D
16b-	.	.	.
=6	=6	=6	=6
4b	8g	8e-	8E-
.	8g	8e-	8E-
8cc	8g	8e-	8E-
8gg	8g	8e-	8E-
4b-	8e- 8c	8F	8F
.	8e- 8c	8F	8F
8a	8e- 8c	8F	8F
8ee-	8a	8c	8F
=7	=7	=7	=7
8dd	4b-	4B-	8BB-
16cc	.	.	8BB-
16b-	.	.	.
4.b-	16d	16B-	8BB-
.	16e-	16c	.
.	16f	16d	8BB-
.	16e-	16c	.
.	8d	8B-	8BB-
8b-	8d	8B-	8BB-
8aa	4d	4B-	8BB-
8gg	.	.	8BB-
=8	=8	=8	=8
4ff	8c	4G	8BB-
.	4cc	.	8BB-
8.ee	.	4g	8BB-
.	4cc	.	8BB-
32ff	.	.	.
32gg	.	.	.
16ff	.	4a	8AA
16gg	.	.	.
16aa	4cc	.	8AA
16gg	.	.	.
16ff	.	[4f	8AA
16ee	.	.	.
16dd	8c	.	8AA
16cc	.	.	.
=9	=9	=9	=9
8.b	4.d	4f]	8GG
.	.	.	8GG
16cc	.	.	.
2b-	.	4.g	8FF
.	16e	.	8FF
.	16f	.	.
.	4g	.	8EE
.	.	8e	8EE
4a	4f	4c	8FF
.	.	.	8FF
=10	=10	=10	=10
4g	4g	8d	8BB-
.	.	8d	8BB-
2gg	2.r	8d	8BB-
.	.	8d	8BB-
.	.	8d	8BB-
.	.	8d	8BB-
4ff	.	8d	8BB
.	.	8d	8BB
=11	=11	=11	=11
4ee	8r	4B-	8C
.	8cc	.	8C
2.r	8ee	2.r	8C
.	8gg	.	8C
.	8bb-	.	8C
.	8aa	.	8C
.	8gg	.	8C
.	8ff	.	8C
=12	=12	=12	=12
8.ccc	16ee	2r	8BB-
.	16ff	.	.
.	16gg	.	8BB-
16ddd	16ff	.	.
4ccc	4.ee	.	8BB-
.	.	.	8BB-
2r	.	8.c	8BB-
.	8gg	.	8BB-
.	.	16d	.
.	8bb-	4c	8BB-
.	8gg	.	8BB-
=13	=13	=13	=13
8.ccc	16ff	2r	8AA
.	16gg	.	.
.	16aa	.	8AA
16ddd	16gg	.	.
4ccc	4.ff	.	8AA
.	.	.	8AA
2r	.	8.c	8AA
.	8aa	.	8AA
.	.	16d	.
.	8ccc	8c	8AA
.	8aa	8f	8AA
=14	=14	=14	=14
1r	8bb-	8g	4EE
.	8aa	8f	.
.	8gg	8e	2.r
.	8ff	8d	.
.	8ee	8c	.
.	8dd	8B-	.
.	8cc	8A	.
.	8b-	8G	.
=15	=15	=15	=15
4r	8a	4F	8r
.	8a	.	8F
2ff	8a	2.r	8F
.	8a	.	8F
.	8a	.	8F
.	8b-	.	8G
[4ff	8b-	.	8G
.	8b-	.	8G
=16	=16	=16	=16
4ff]	8b	1r	8G
.	8cc	.	8A
2ff	8cc	.	8A
.	8dd	.	8B-
.	8dd	.	8B-
.	8ee-	.	8c
[4ff	8ee-	.	8c
.	16dd	.	16B-
.	16cc	.	16A
=17	=17	=17	=17
4ff]	8dd	8r	4B-
.	8ff	8B-	.
4.ddd	8ff	8B-	2.r
.	8ff	8B-	.
.	4ff	4B-	.
8bb-	.	.	.
8ff	4r	4r	.
8dd	.	.	.
=18	=18	=18	=18
8b-	1r	2r	2r
8f	.	.	.
8d	.	.	.
8B-	.	.	.
2A-	.	16F	8BB
.	.	16F	.
.	.	16F	8BB
.	.	16F	.
.	.	16F	8BB
.	.	16F	.
.	.	16F	8BB
.	.	16F	.
=19	=19	=19	=19
4A	16r	4F	8C
.	16ff	.	.
.	16ff	.	8C
.	16ff	.	.
2ccc	16ff	16a	8C
.	16ff	16a	.
.	16ff	16a	8C
.	16ff	16a	.
.	16ff	16a	8C
.	16ff	16a	.
.	16ff	16a	8C
.	16ff	16a	.
16bb-	16ff	16a	8C
16aa	16ff	16a	.
16gg	16ff	16a	8C
16ff	16ff	16a	.
=20	=20	=20	=20
1gg	16ff	16b-	8C
.	16ff	16b-	.
.	16ff	16b-	8C
.	16ff	16b-	.
.	16ff	16b-	8C
.	16ff	16b-	.
.	16ff	16b-	8C
.	16ff	16b-	.
.	16ee	16b-	8C
.	16ee	16b-	.
.	16ee	16b-	8C
.	16ee	16b-	.
.	16ee	16b-	8C
.	16ee	16b-	.
.	16ee	16b-	8C
.	16ee	16b-	.
=21	=21	=21	=21
8ff	8ff	4a	4F
8cc	8a	.	.
8cc	8a	2.r	2.r
8cc	8a	.	.
8.dd	8.b-	.	.
16ee	16cc	.	.
8ff	8dd	.	.
8ee	8cc	.	.
=22	=22	=22	=22
8dd	8b-	2r	2r
8cc	8a	.	.
8b-	8g	.	.
8a	8f	.	.
4g	4e	4c	4C
8bb-	8gg	4B-	4CC
16aa	16ff	.	.
16gg	16ee	.	.
=23	=23	=23	=23
8ff	8ff	4A	4FF
8cc	8a	.	.
8cc	8a	2.r	2.r
8cc	8a	.	.
8.dd	8.b-	.	.
16ee	16cc	.	.
8ff	8dd	.	.
8ee	8cc	.	.
=24	=24	=24	=24
8dd	8b-	2r	2r
8cc	8a	.	.
8b-	8g	.	.
8a	8f	.	.
4g	4e	4c	4C
8bb-	8gg	4B-	4CC
16aa	16ff	.	.
16gg	16ee	.	.
=25	=25	=25	=25
4ff	4ff	4A	4FF
4ff 4a	4cc 4f	4c	4FF
4ff 4a	4cc 4f	4f	4FF
4r	4r	4r	4r
=26	=26	=26	=26
2.ff	8d	8F	4F
.	8f	8F	.
.	8d	8F	2.r
.	8f	8F	.
.	8d	8F	.
.	8f	8F	.
4bb-	8d	8F	.
.	8f	8F	.
=27	=27	=27	=27
4.dd	8B-	8F	4FF
.	8f	8F	.
.	8B-	8F	2.r
8ff	8d	8F	.
4ee-	8c	8F	.
.	8f	8F	.
4r	8c	8F	.
.	8B-	8F	.
=28	=28	=28	=28
2.ee-	8A	8F	4F
.	8c	8F	.
.	8f	8F	2.r
.	8c	8F	.
.	8A	8F	.
.	8c	8F	.
4ccc	8f	8F	.
.	8a	8F	.
=29	=29	=29	=29
4.cc	8f	8F	4FF
.	8a	8F	.
.	8A	8F	2.r
8ee-	8f	8F	.
4dd	8B-	8F	.
.	8f	8F	.
8r	8d	8F	.
8dd	8B-	8F	.
=30	=30	=30	=30
8cc	8A	8F	8E-
8dd	8B-	8F	8D
8ee-	8c	8F	8C
8gg	8e-	8F	8BB-
8gg	8e-	8F	4AA
8ff	8d	8F	.
8ee-	8c	8F	4BB-
8dd	8B-	8F	.
=31	=31	=31	=31
4dd	4B-	8F	4FF
.	.	8F	.
4cc	4A	8F	4r
.	.	8F	.
2r	2r	4F	4F
.	.	4r	4E-
=32	=32	=32	=32
4aa 4cc 4d	4ff# 4a 4d	4cc 4d	4D
4r	4r	2.r	2.r
8.cc	8.a	.	.
32b-	32g	.	.
32cc	32a	.	.
8dd	8b-	.	.
8cc	8a	.	.
=33	=33	=33	=33
8b-	8g	8g	1r
8r	8r	8r	.
8gg	8b-	8d	.
8r	8r	8r	.
8bb-	8gg	8B-	.
4.r	4.r	8r	.
.	.	8G	.
.	.	8r	.
=34	=34	=34	=34
4aa- 4b- 4d	4ff 4b- 4d	4f 4B-	4D
4r	4r	2.r	2.r
8.a-	8.f	.	.
32g	32e-	.	.
32a-	32f	.	.
8b-	8g	.	.
8a-	8f	.	.
=35	=35	=35	=35
8g	8e-	8e-	1r
8r	8r	8r	.
8ee-	8g	8B-	.
8r	8r	8r	.
8gg	8b-	8G	.
4.r	4.r	8r	.
.	.	8E-	.
.	.	8r	.
=36	=36	=36	=36
4ddd 4ff 4g	4ff 4dd 4g	4g 4G	4BB
4r	4r	4r	4r
8.ff	8.dd	2g	2BB
32ee-	32cc	.	.
32ff	32dd	.	.
8gg	8ee-	.	.
8ff	8dd	.	.
=37	=37	=37	=37
8ff	8dd	4g	2C
8ee-	8cc	.	.
8ee-	8cc	4a	.
8ee-	8cc	.	.
8ee-	8cc	4b-	2D
8dd	8b-	.	.
8dd	8b-	4f	.
8dd	8b-	.	.
=38	=38	=38	=38
8dd	8g	4g	8E-
8cc	8g	.	8E-
2cc	8g	8.e-	8E-
.	8g	.	8E-
.	.	16d	.
.	8g	8c	8E
.	8g	8c	8E
4b-	8g	8c	8E
.	8g	8c	8E
=39	=39	=39	=39
4ff 4a	4f	4c	4F
16cc	16a	4f	4F
16a	16f	.	.
16cc	16a	.	.
16a	16f	.	.
4f	4A	4F	4FF
4r	4r	4r	4r
=40	=40	=40	=40
2bb- 2b- 2d	2dd 2f 2B-	8B-	8BB-
.	.	8B-	8BB-
.	.	8B-	8BB-
.	.	8B-	8BB-
4.dd	4.b-	8B-	8BB-
.	.	8B-	8BB-
.	.	8B-	8BB-
8ee-	8cc	8B-	8BB-
=41	=41	=41	=41
8ee	8cc#	8B-	8BB-
8ff	8dd	8B-	8BB-
4.ff	4.dd	8B-	8BB-
.	.	8B-	8BB-
.	.	8B-	8BB-
8bb-	8ff	8B-	8BB-
8dd	8b-	8B-	8BB-
8ee-	8cc	8B-	8BB-
=42	=42	=42	=42
8ee	8cc#	8B-	8BB-
8ff	8dd	8B-	8BB-
4ff	4dd	8B-	8BB-
.	.	8B-	8BB-
16bb-	8f	8d	8D
16aa	.	.	.
16gg	8f	8d	8D
16ff	.	.	.
16ee-	8f	8d	8D
16dd	.	.	.
16cc	8f	8d	8D
16b-	.	.	.
=43	=43	=43	=43
4b	8g	8e-	8E-
.	8g	8e-	8E-
8cc	8g	8e-	8E-
8ee-	8g	8e-	8E-
4b-	8c	8e-	8F
.	8c	8e-	8F
8a	8c	8e-	8F
8cc	8c	8e-	8F
=44	=44	=44	=44
4e-	8B-	8B-	8G
.	8B-	8B-	8G
8d	8B-	8B-	8G
8r	8B-	8B-	8G
16bb-	8f	8d	8D
16aa	.	.	.
16gg	8f	8d	8D
16ff	.	.	.
16ee-	8f	8d	8D
16dd	.	.	.
16cc	8f	8d	8D
16b-	.	.	.
=45	=45	=45	=45
4b	8g	8e-	8E-
.	8g	8e-	8E-
8cc	8g	8e-	8E-
8gg	8g	8e-	8E-
4b-	8e- 8c	8F	8F
.	8e- 8c	8F	8F
8a	8e- 8c	8F	8F
8ee-	8a	8c	8F
=46	=46	=46	=46
8dd	4b-	4B-	8BB-
16cc	.	.	8BB-
16b-	.	.	.
4b-	16d	16B-	8BB-
.	16e-	16c	.
.	16f	16d	8BB-
.	16e-	16c	.
8r	8d	8B-	8BB-
8b-	8d	8B-	8BB-
8aa-	4d	4B-	8BB-
8ff	.	.	8BB-
=47	=47	=47	=47
4ee-	4r	1B-	8AA-
.	.	.	8AA-
8.dd	4f	.	8AA-
.	.	.	8AA-
32ee-	.	.	.
32ff	.	.	.
16ee-	4.b-	.	8GG
16ff	.	.	.
16gg	.	.	8GG
16ff	.	.	.
16ee-	.	.	8GG
16dd	.	.	.
16cc	8g	.	8GG
16b-	.	.	.
=48	=48	=48	=48
8.a	4c	4f	8FF
.	.	.	8FF
32cc	.	.	.
32b-	.	.	.
2a	2f	2c	8F
.	.	.	8F
.	.	.	8E-
.	.	.	8E-
4a-	[4f	[4B-	8D
.	.	.	8D
=49	=49	=49	=49
4g	4f]	8B-]	8E-
.	.	8B	8E-
2gg	8.e-	8c	8E-
.	.	8d	8E-
.	16d	.	.
.	4c	4e-	8E-
.	.	.	8E-
4b-	4g	4c	8E-
.	.	.	8E
=50	=50	=50	=50
4a	8f	4c	4F
.	8f	.	.
2.r	8a	2.r	2.r
.	8cc	.	.
.	8ee-	.	.
.	8dd	.	.
.	8cc	.	.
.	8b-	.	.
=51	=51	=51	=51
8.ff	16a	2r	8E-
.	16b-	.	.
.	16cc	.	8E-
16gg	16b-	.	.
4ff	4.a	.	8E-
.	.	.	8E-
2r	.	8.f	8E-
.	8cc	.	8E-
.	.	16g	.
.	8ee-	4f	8E-
.	8cc	.	8E-
=52	=52	=52	=52
8.ff	16b-	2r	8D
.	16cc	.	.
.	16dd	.	8D
16gg	16cc	.	.
4ff	4.b-	.	8D
.	.	.	8D
2r	.	8.f	8D
.	8dd	.	8D
.	.	16g	.
.	8ff	8f	8D
.	8dd	8b-	8D
=53	=53	=53	=53
1r	8ee-	8cc	4AA
.	8dd	8b-	.
.	8cc	8a	2.r
.	8b-	8g	.
.	8a	8f	.
.	8g	8e-	.
.	8f	8d	.
.	8e-	8c	.
=54	=54	=54	=54
4r	8d	4B-	8r
.	8dd	.	8BB-
2bb-	8dd	2.r	8BB-
.	8dd	.	8BB-
.	8dd	.	8BB-
.	8ee-	.	8C
[4bb-	8ee-	.	8C
.	8ee-	.	8C
=55	=55	=55	=55
4bb-]	8ee	1r	8C
.	8ff	.	8D
2bb-	8ff	.	8D
.	8gg	.	8E-
.	8gg	.	8E-
.	8aa-	.	8F
[4bb-	8aa-	.	8F
.	16gg	.	16E-
.	16ff	.	16D
=56	=56	=56	=56
4bb-]	8gg	8r	8E-
.	8b-	8E-	8EE-
4.gg	8b-	8E-	8EE-
.	8b-	8E-	8EE-
.	4b-	4E-	4EE-
8ee-	.	.	.
8b-	4r	4r	4r
8g	.	.	.
=57	=57	=57	=57
8ee-	2r	2r	2r
8b-	.	.	.
8g	.	.	.
8e-	.	.	.
2d-	8B-	8G	8EE
.	8B-	8G	8EE
.	8B-	8G	8EE
.	8B-	8G	8EE
=58	=58	=58	=58
4d	4B-	4F	8FF
.	.	.	8FF
2ff	16b-	16d	8FF
.	16b-	16d	.
.	16b-	16d	8FF
.	16b-	16d	.
.	16b-	16d	8FF
.	16b-	16d	.
.	16b-	16d	8FF
.	16b-	16d	.
16ee-	16b-	16d	8FF
16dd	16b-	16d	.
16cc	16b-	16d	8FF
16b-	16b-	16d	.
=59	=59	=59	=59
1cc	16b-	16e-	8FF
.	16b-	16e-	.
.	16b-	16e-	8FF
.	16b-	16e-	.
.	16b-	16e-	8FF
.	16b-	16e-	.
.	16b-	16e-	8FF
.	16b-	16e-	.
.	16a	16e-	8FF
.	16a	16e-	.
.	16a	16e-	8FF
.	16a	16e-	.
.	16a	16e-	8FF
.	16a	16e-	.
.	16a	16e-	8FF
.	16a	16e-	.
=60	=60	=60	=60
8b-	8b-	4d	4BB-
8ff	8dd	.	.
8ff	8dd	2.r	2.r
8ff	8dd	.	.
8.gg	8.ee-	.	.
16aa	16ff	.	.
8bb-	8gg	.	.
8aa	8ff	.	.
=61	=61	=61	=61
8gg	8ee-	2r	2r
8ff	8dd	.	.
8ee-	8cc	.	.
8dd	8b-	.	.
4cc	4a	4f	4F
8ee-	8cc	4e-	4FF
16dd	16b-	.	.
16cc	16a	.	.
=62	=62	=62	=62
8b-	8b-	4d	4BB-
8ff	8dd	.	.
8ff	8dd	2.r	2.r
8ff	8dd	.	.
8.gg	8.ee-	.	.
16aa	16ff	.	.
8bb-	8gg	.	.
8aa	8ff	.	.
=63	=63	=63	=63
8gg	8ee-	2r	2r
8ff	8dd	.	.
8ee-	8cc	.	.
8dd	8b-	.	.
4cc	4a	4f	4F
8ee-	8cc	4e-	4FF
16dd	16b-	.	.
16cc	16a	.	.
=64	=64	=64	=64
4b-	4b-	4d	4BB-
4bb- 4b- 4d	4dd 4f 4B-	4B-	4BB-
4bb- 4b- 4d	4dd 4f 4B-	4B-	4BB-
4r	4r	4r	4r
==	==	==	==
*-	*-	*-	*-
!!!RWG1: This file contains only pitch and duration data.
!!!RWG2: Transposing instruments are not transposed.
!!!RWG3: Spines may have incompatible meters.
!!!RWG4: Durations of rests and tied notes may be interpreted.
!!!RWG: Key is interpreted using the Humdrum key tool.
!!!AFT: stage1
!!!END: 1997/04/15
!!format changes:
!!content changes:
!!public access: complete
!!!KEY: 4275220616
!!!EMD: Converted from MuseData to Humdrum Dec 16, 2000, by Andreas Kornstaedt using muse2kern.
